X:9
T:Banks of sweet primroses - Broad
%%VWML:SBG-1-2-225-0
F:http://www.vwml.org/record/SBG/1/2/225
Z:Original Sibelius transcriptions by M. & S. Graebe
M:6/8
I:linebreak $
K:G
V:1 treble nm="P1"
V:1
 D | GGG ABc | ded BGd | ded BGD | FGE D2 |$ D/E/ | GGG GAB | ccc BGd | ded BGA | GEF G2 x | %10
T:Banks of sweet primroses - Nichols
F:http://www.vwml.org/record/SBG/1/2/225
Z:Original Sibelius transcriptions by M. & S. Graebe
M:6/8
I:linebreak $
K:G
V:1 treble nm="P1"
V:1
 d | d d d efg | d B c !fermata!d G d | d Bc d2 d | e d^c d2 d |$ d BG E FG | c2 B A F D | %7
 d2 d e fg | B GA G2 x | %9
T:Banks of sweet primroses - Doige
F:http://www.vwml.org/record/SBG/1/2/225
Z:Original Sibelius transcriptions by M. & S. Graebe
M:3/4
I:linebreak $
K:C
V:1 treble nm="P1"
V:1
 G2 | cG c2 d2 | e>dc/ cG z2 d/>e/ |[M:4/4] ff e2 cA Bc |$[M:3/4] d3 d e/f/ (3f/g/a/ | g3 e/d/ cB | %6
 A2 G2 dBG | g3 e ccd | c3 x3 |$"^or" g3 c/d/ ed | dG z d BG | z4 z2 | z2 z4 | z4 z2 | z2 z2 z2 | %15
T:Banks of sweet primroses - Whitfield
F:http://www.vwml.org/record/SBG/1/2/225
Z:Original Sibelius transcriptions by M. & S. Graebe
M:3/4
I:linebreak $
K:G
V:1 treble nm="P1"
V:1
 z2 z z D G | D G3 A B | A A G>F D2 | A-B c c B2 | G3/2 E/ F G A2 |$ A3 B c/d/ e | %6
w: ||||||
 d>B G3/2 A/ B A | G>F D2 A2 | G-F E-D G B | d c B A G |$"^chorus" A3 B c/d/ e | d->B G3/2 A/ B A | %12
w: ||||For there's many _ a|dark _ and a cloudy _|
 G->F D2 A2 | G-F E-D G B | d c B A G2 | %15
w: morn- * ing turns|out to be a bright _|& sun- shine _ day|
T:Banks of sweet primroses - Morgan
F:http://www.vwml.org/record/SBG/1/2/225
Z:Original Sibelius transcriptions by M. & S. Graebe
M:3/4
I:linebreak $
K:G
V:1 treble nm="P1"
V:1
 G2 G G | D2 G G F G | cB G2 z B | c e d2 G E | F G A2 z B |$ c/d/ e d2 G d | c/B/ A/G/ GF D A | %7
 G/F/ E/D/ GB d c | B A G2 x2 | %9

